material/.icons/material/store-24-hour.svg

<svg xmlns="http://www.w3.org/2000/svg" viewBox="0 0 24 24"><path d="M16 12h-1v-2h-2V7h1v2h1V7h1m-5 3H9v1h2v1H8V9h2V8H8V7h3m8 0V4H5v3H2v13h8v-4h4v4h8V7h-3z"/></svg>

<?xml version="1.0" encoding="UTF-8"?><!DOCTYPE svg PUBLIC "-//W3C//DTD SVG 1.1//EN" "http://www.w3.org/Graphics/SVG/1.1/DTD/svg11.dtd"><svg xmlns="http://www.w3.org/2000/svg" xmlns:xlink="http://www.w3.org/1999/xlink" version="1.1" id="mdi-store-24-hour" width="24" height="24" viewBox="0 0 24 24"><path d="M16,12H15V10H13V7H14V9H15V7H16M11,10H9V11H11V12H8V9H10V8H8V7H11M19,7V4H5V7H2V20H10V16H14V20H22V7H19Z" /></svg>
